X: 22
T:Pretty Witch of Lancaster,The JB.22
M:4/4
L:1/8
Q:180
S:James Biggins MS, Leeds,1779.
R:Reel
O:England
A:Yorkshire
W:Nick Barber & Chris Partingto
K:F
A|F>GFA cdfd|cAfA G/G/GG2|!F>GFA cdfd|cAfA F/F/FF2|!
|f/-g/|agfd fdcA|FAfA G/G/G Gf/-g/|!((3agf) ((3gfe) ((3fdc) ((3dcA)|FAfA
 F/F/FF2|]
